flaticon/arrows/curved-arrow-8.svg

<svg xmlns="http://www.w3.org/2000/svg" width="32" height="32" viewBox="0 0 24 24">
    <path d="M 8.703125 12.445312 L 5.464844 15.6875 C 5.289062 15.859375 5.289062 16.140625 5.464844 16.3125 C 5.550781 16.402344 5.664062 16.445312 5.777344 16.445312 C 5.890625 16.445312 6.003906 16.402344 6.09375 16.3125 L 10.089844 12.316406 C 10.132812 12.273438 10.164062 12.222656 10.1875 12.167969 C 10.234375 12.0625 10.234375 11.9375 10.1875 11.832031 C 10.164062 11.777344 10.132812 11.726562 10.089844 11.683594 L 6.09375 7.6875 C 5.917969 7.511719 5.636719 7.511719 5.464844 7.6875 C 5.289062 7.859375 5.289062 8.140625 5.464844 8.3125 L 8.703125 11.554688 L 4.890625 11.554688 C 2.683594 11.554688 0.890625 9.761719 0.890625 7.554688 C 0.890625 5.351562 2.683594 3.554688 4.890625 3.554688 L 19.109375 3.554688 C 19.355469 3.554688 19.554688 3.355469 19.554688 3.109375 C 19.554688 2.867188 19.355469 2.667969 19.109375 2.667969 L 4.890625 2.667969 C 2.191406 2.667969 0 4.859375 0 7.554688 C 0 10.25 2.191406 12.445312 4.890625 12.445312 Z M 8.703125 12.445312"/>
    <path d="M 19.746094 11.601562 C 19.6875 11.574219 19.625 11.554688 19.554688 11.554688 L 16.847656 11.554688 C 16.636719 10.296875 15.542969 9.332031 14.222656 9.332031 C 12.75 9.332031 11.554688 10.53125 11.554688 12 C 11.554688 13.46875 12.75 14.667969 14.222656 14.667969 C 15.539062 14.667969 16.636719 13.703125 16.847656 12.445312 L 19.109375 12.445312 C 21.316406 12.445312 23.109375 14.238281 23.109375 16.445312 C 23.109375 18.648438 21.316406 20.445312 19.109375 20.445312 L 4.890625 20.445312 C 4.644531 20.445312 4.445312 20.644531 4.445312 20.890625 C 4.445312 21.132812 4.644531 21.332031 4.890625 21.332031 L 19.109375 21.332031 C 21.808594 21.332031 24 19.140625 24 16.445312 C 24 13.964844 22.140625 11.914062 19.746094 11.601562 Z M 14.222656 13.777344 C 13.242188 13.777344 12.445312 12.980469 12.445312 12 C 12.445312 11.019531 13.242188 10.222656 14.222656 10.222656 C 15.203125 10.222656 16 11.019531 16 12 C 16 12.980469 15.203125 13.777344 14.222656 13.777344 Z M 14.222656 13.777344"/>
</svg>

<svg xmlns="http://www.w3.org/2000/svg" width="32" height="32" viewBox="0 0 24 24">
    <path d="M8.703 12.445l-3.238 3.242a.436.436 0 0 0 0 .626c.086.09.2.132.312.132a.444.444 0 0 0 .317-.133l3.996-3.996a.467.467 0 0 0 .098-.148.419.419 0 0 0 0-.336.467.467 0 0 0-.098-.148L6.094 7.688a.44.44 0 0 0-.63 0 .436.436 0 0 0 0 .625l3.24 3.242H4.89c-2.207 0-4-1.793-4-4 0-2.203 1.793-4 4-4h14.218a.444.444 0 0 0 0-.887H4.891C2.19 2.668 0 4.859 0 7.555a4.895 4.895 0 0 0 4.89 4.89zm0 0"/>
    <path d="M19.746 11.602a.446.446 0 0 0-.191-.047h-2.707a2.666 2.666 0 0 0-2.625-2.223A2.672 2.672 0 0 0 11.555 12a2.672 2.672 0 0 0 2.668 2.668 2.67 2.67 0 0 0 2.625-2.223h2.261c2.207 0 4 1.793 4 4 0 2.203-1.793 4-4 4H4.891a.444.444 0 0 0 0 .887h14.218c2.7 0 4.891-2.191 4.891-4.887 0-2.48-1.86-4.53-4.254-4.843zm-5.523 2.175c-.98 0-1.778-.797-1.778-1.777A1.779 1.779 0 0 1 16 12c0 .98-.797 1.777-1.777 1.777zm0 0"/>
</svg>
